packages/icons/src/__generated__/nav/svg/nav-apiPlug-12-active.svg

<svg xmlns="http://www.w3.org/2000/svg" fill="#1652F0" viewBox="0 0 12 12"><path d="M10.989.995h-1.5v10h1.5v-10Zm-6 1a4 4 0 1 0 0 8h1.5v-2h2v-1.25h-2v-1.5h2v-1.25h-2v-2h-1.5Z"/></svg>

<svg xmlns="http://www.w3.org/2000/svg" fill="#1652F0" viewBox="0 0 12 12"><path d="M11 1H9.5v10H11V1ZM5 2a4 4 0 1 0 0 8h1.5V8h2V6.75h-2v-1.5h2V4h-2V2H5Z"/></svg>
